X:1
T:[ID 3-55]
T:[ID 3-55]
T:Bezeichnung standardisiert: Andante Andante
T:Urheber unbekannt Datum in der hier transkribierten schriftlichen Quelle: 1767
C:Urheber unbekannt
C:Datum in der hier transkribierten schriftlichen Quelle: 1767
%%score 1 2
L:1/8
M:2/4
K:D
V:1 treble nm="Primo"
V:2 treble nm="Secondo"
V:1
 A | ddde | fffg | aa ag/f/ | b a2 d' | aa ag/f/ | b a2 d' | ag/f/ ag/f/ | e3 :: d' | ag/f/ ga | %11
 b a2 d' | ag/f/ ga | b a2 d' | b a2 d' | b a2 d | d'c'/b/ ag | fe/d/ Te2 | d3 a | fe/f/ gf/e/ | %20
 fe/f/ gf/e/ | faaa | d'c'/b/ ag | fe/d/ Te2 | d3 :| %25
V:2
 !fermata!A | FFFG | ddde | ff fe/d/ | g f2 e | ff fe/d/ | g f2 a | fe/d/ fe/d/ | A3 :: f | %10
 fe/d/ ef | g f2 f | fe/d/ ef | g f2 a | g f2 a | g f2 f | fa/g/ fe | dB AG | F3 f | dc/d/ ed/c/ | %20
 dc/d/ ed/c/ | dfff | fa/g/ fe | dBAG | F3 :| %25

